X: 31902
T: Peacock Follow The Hen
R: slip jig
M: 9/8
K: Amixolydian
cde AcA c2A|cde AcA dBG|cde AcA ABc|B2G Gge dBG:|
|:cde ege ege|cde ege dBG|cde ege efg|f2d dge dBG:|

